assets/bank-tab/Asset/Upgrade Credit Card.svg

<svg width="24" height="20" viewBox="0 0 24 20" fill="none" xmlns="http://www.w3.org/2000/svg">
<path d="M0.349669 1.9805C0.217808 2.65158 0.151878 2.98712 0.362829 3.24356C0.57378 3.49999 0.951245 3.49999 1.70618 3.49999H20.7332C21.4974 3.49999 21.8795 3.49999 22.0906 3.2404C22.3016 2.9808 22.2308 2.64131 22.0892 1.96232C21.9927 1.50001 21.8504 1.17737 21.5856 0.920084C21.093 0.441381 20.3708 0.391623 18.9263 0.292107C13.2817 -0.0967854 9.17025 -0.0972002 3.53207 0.289857C2.07156 0.39012 1.34131 0.440251 0.846704 0.92726C0.581512 1.18838 0.441245 1.51444 0.349669 1.9805Z" fill="#785103"/>
<path fill-rule="evenodd" clip-rule="evenodd" d="M22.4914 6.81315C22.4779 6.19512 22.4711 5.88611 22.2661 5.68558C22.0612 5.48505 21.744 5.48505 21.1098 5.48505H1.38819C0.748227 5.48505 0.428244 5.48505 0.22293 5.68745C0.0176153 5.88985 0.0131453 6.2025 0.00420525 6.8278C-0.0171086 8.31857 0.0427684 9.77667 0.179949 11.4022C0.300053 12.8253 0.360104 13.5369 0.849693 14.0228C1.33928 14.5086 2.06403 14.5642 3.51354 14.6754C6.06728 14.8714 8.30713 14.9785 10.5163 14.9971C10.7868 14.9994 11 14.7705 11 14.5C11 10.3579 14.3579 7 18.5 7C19.492 7 20.439 7.19259 21.3057 7.54243C21.8499 7.76209 22.5042 7.39986 22.4914 6.81315ZM2.44217 10.4477C2.44217 9.89956 2.88654 9.45519 3.4347 9.45519H5.3471C5.89526 9.45519 6.33963 9.89956 6.33963 10.4477C6.33963 10.9959 5.89526 11.4402 5.3471 11.4402H3.4347C2.88654 11.4402 2.44217 10.9959 2.44217 10.4477Z" fill="#785103"/>
<path fill-rule="evenodd" clip-rule="evenodd" d="M18.5 20C21.5376 20 24 17.5376 24 14.5C24 11.4624 21.5376 9 18.5 9C15.4624 9 13 11.4624 13 14.5C13 17.5376 15.4624 20 18.5 20Z" fill="#785103"/>
<path d="M17.8343 12.0489C18.0438 11.404 18.9562 11.404 19.1657 12.0489L19.3532 12.6257C19.4469 12.9142 19.7156 13.1094 20.0189 13.1094H20.6254C21.3035 13.1094 21.5854 13.9772 21.0368 14.3757L20.5462 14.7322C20.3008 14.9105 20.1982 15.2264 20.2919 15.5148L20.4793 16.0916C20.6888 16.7366 19.9507 17.2728 19.4021 16.8743L18.9114 16.5178C18.6661 16.3395 18.3339 16.3395 18.0886 16.5178L17.5979 16.8743C17.0493 17.2728 16.3112 16.7366 16.5207 16.0916L16.7081 15.5148C16.8018 15.2264 16.6992 14.9105 16.4538 14.7322L15.9632 14.3757C15.4146 13.9772 15.6965 13.1094 16.3746 13.1094H16.9811C17.2844 13.1094 17.5531 12.9142 17.6468 12.6257L17.8343 12.0489Z" fill="#FEEAC1"/>
</svg>

<svg xmlns="http://www.w3.org/2000/svg" width="24" height="20" fill="none" viewBox="0 0 24 20"><path fill="#785103" d="M.35 1.98c-.132.672-.198 1.007.013 1.264.21.256.588.256 1.343.256h19.027c.764 0 1.146 0 1.358-.26.21-.26.14-.599-.002-1.278-.096-.462-.239-.785-.503-1.042-.493-.479-1.215-.528-2.66-.628C13.282-.097 9.17-.098 3.532.29c-1.46.1-2.19.15-2.685.637C.582 1.188.44 1.514.35 1.98"/><path fill="#785103" fill-rule="evenodd" d="M22.491 6.813c-.013-.618-.02-.927-.225-1.127s-.522-.2-1.156-.2H1.388c-.64 0-.96 0-1.165.201-.205.203-.21.515-.219 1.14a46 46 0 0 0 .176 4.575c.12 1.423.18 2.135.67 2.62.49.487 1.214.542 2.664.653 2.553.196 4.793.303 7.002.322A.49.49 0 0 0 11 14.5a7.5 7.5 0 0 1 10.306-6.958c.544.22 1.198-.142 1.185-.729M2.442 10.448c0-.548.445-.993.993-.993h1.912a.993.993 0 1 1 0 1.985H3.435a.99.99 0 0 1-.993-.992" clip-rule="evenodd"/><path fill="#785103" fill-rule="evenodd" d="M18.5 20a5.5 5.5 0 1 0 0-11 5.5 5.5 0 0 0 0 11" clip-rule="evenodd"/><path fill="#feeac1" d="M17.834 12.049c.21-.645 1.122-.645 1.332 0l.187.577a.7.7 0 0 0 .666.483h.606c.678 0 .96.868.412 1.267l-.49.356a.7.7 0 0 0-.255.783l.187.577c.21.645-.528 1.18-1.077.782l-.49-.356a.7.7 0 0 0-.823 0l-.491.356c-.549.399-1.287-.137-1.077-.782l.187-.577a.7.7 0 0 0-.254-.783l-.49-.356c-.55-.399-.268-1.267.41-1.267h.607a.7.7 0 0 0 .666-.483z"/></svg>
